X: 41592
T: Up And Over
R: reel
M: 4/4
K: Dmajor
|:"D" A2 DE FGAB|"Am"=cAed "A"^cdeg|"D"f2 (3gfe "A"agec|"D"d2 AF "A"GEAG|
"D" A2 DE FGAB|"Am"=cAed "A"^cdeg|"A"agec "D"d2 (3FGA|"Em"G2 ed "A"(3cBA GE:|
|:"D"A2 (3FGA defd|"A"edce "D"dcAB|"A"cAAG "D"(3FGA df|"Em"edce "A"dcAB|
"D"A2 (3FGA defd|"A"edce "D"dcAB|"A"c2 (3EFG ABcd|"A"e2 dB cAGE:|

